X: 29088
T: Neilly O'Boyle's Highland
R: hornpipe
M: 4/4
K: Dmixolydian
M:6/8
A2d d2^c|A3 A2G|F2F E2D|EFG z2A|
A2d d2^c|A3 A2B|c2B c2E|EDD z2E|
F3F3|E3F2G|A2AG2E|EDD z2E|
F3F3|E3F2G|A2AG2E|EDD z3|

